MA1T1/128/aimg/pelota.svg

<svg clip-rule="evenodd" fill-rule="evenodd" stroke-linejoin="round" stroke-miterlimit="2" viewBox="0 0 53 53" xmlns="http://www.w3.org/2000/svg"><g fill-rule="nonzero" transform="translate(-39 -29)"><path d="m75.25 52.34c-.59-.23-1.72-.79-2.59-1.54-.97-.98-1.57-2.27-1.57-3.69 0-2.11 1.31-3.94 3.22-4.86 1.67-.61 2.93-.64 3.66-.57 2.92.38 5.17 2.67 5.17 5.44 0 .55-.09 1.08-.26 1.59-.09.21-.56 1.22-1.31 2.11-1.1 1.11-2.69 1.81-4.45 1.81-.66-.01-1.28-.11-1.87-.29z" fill="#fff"/><path d="m90.82 55.85v.12c-.96-2.04-2.94-4.96-6.85-7.35.13-.49.2-.99.2-1.51 0-2.84-1.97-5.25-4.71-6.14.41-2.75-.59-5.31-1.44-6.89 7.62 4.26 12.8 12.42 12.8 21.77z" fill="#ff9e46"/><path d="m56.41 32.81c7.61.62 14.93 7.07 16.84 8.87-1.91 1.17-3.18 3.17-3.18 5.44 0 .62.1 1.21.27 1.77-2.64.53-14.6 2.36-26.4-4.82 2.71-5.05 7.13-9.06 12.47-11.26z" fill="#71ff96"/><path d="m48.37 73.56c4.12-.59 19.19-3.83 27.01-20.13.56.13 1.14.21 1.74.21.74 0 1.45-.11 2.12-.3.75 2.15 3.82 11.7 2.49 21.75-4.31 3.55-9.83 5.69-15.83 5.69-6.83 0-13.02-2.76-17.53-7.22z" fill="#bc2aff"/><path d="m79.54 52.7s4.28 10.96 2.66 22.67c0 0 7.34-4.96 8.98-16.82 0 0-1.03-5.73-7.82-9.69.01 0-1.39 3.41-3.82 3.84z" fill="#b71c32"/><path d="m71.01 49.27s-13.97 3.62-27.76-5.01c0 0-8.32 13.86 4.02 28.92 0 0 18.86-1.13 27.83-20.34 0 0-3.66-1.42-4.09-3.57z" fill="#009fdf"/><path d="m74.09 41.79s-8.63-8.84-17.78-9.51c0 0 9.71-4.59 20.26.48 0 0 3.21 4.15 2.29 8.56.01.01-1.78-.64-4.77.47z" fill="#f0d33b"/><path d="m79.04 77.63s-20.37 3.56-25.54-16.17 10.01-31.08 10.01-31.08-26.86 3.53-22.55 30.53c0 0 9.01 30.68 38.08 16.72z" fill="#32346f" fill-opacity=".2"/><path d="m88.91 67.8c1.45-2.79 2.42-5.87 2.77-9.14 0-.02.01-.03.01-.05v-.01c.1-.9.15-1.82.15-2.75 0-10.4-6.15-19.38-15-23.51-.01-.01-.02-.02-.04-.03-5.55-2.67-10.9-2.7-14.78-2.11-.04.01-.08.01-.13.02-.41.06-.81.14-1.19.21-.02 0-.04.01-.06.01-2.77.56-4.51 1.36-4.55 1.38-.01.01-.02.02-.04.03-5.71 2.34-10.39 6.67-13.21 12.11-.01.02-.03.03-.04.04-.03.04-.87 1.5-1.62 3.94-.8 2.5-1.24 5.15-1.24 7.91 0 6.75 2.59 12.9 6.83 17.52.03.04.06.08.1.12.02.03.06.04.08.07 4.74 5.06 11.47 8.23 18.93 8.23 6.3 0 12.08-2.26 16.58-6 .01 0 .02 0 .02-.01.2-.14 3.45-2.41 6.1-7.38.08-.15.17-.31.25-.46.03-.04.06-.09.08-.14zm-1.79 1.1c-1.18 1.91-2.61 3.66-4.25 5.18.98-9.74-1.88-18.78-2.66-21.03.85-.3 1.55-.91 2.11-1.55.54-.55.98-1.18 1.3-1.88 5.63 3.52 6.89 8.3 7.04 8.96v.03c-.61 4.33-2.03 7.73-3.54 10.29zm-39.63 3.74c-7.97-9.87-6.9-19.26-5.37-24.3.37-1.16.81-2.28 1.34-3.36 12.23 7.4 24.64 5.4 27.2 4.88.26.64.75 1.21 1.3 1.69.68.67 1.5 1.22 2.43 1.58-8.25 17.03-24.65 19.28-26.9 19.51zm27.76-20.3c-.59-.23-1.72-.79-2.59-1.54-.97-.98-1.57-2.27-1.57-3.69 0-2.11 1.31-3.94 3.22-4.86 1.67-.61 2.93-.64 3.66-.57 2.92.38 5.17 2.67 5.17 5.44 0 .55-.09 1.08-.26 1.59-.09.21-.56 1.22-1.31 2.11-1.1 1.11-2.69 1.81-4.45 1.81-.66-.01-1.28-.11-1.87-.29zm-13.18-21.12c.02 0 .03-.01.05-.01 1.23-.19 2.49-.29 3.77-.29 3.7 0 7.21.82 10.37 2.27.46.65 2.67 3.96 2.2 7.52-.12-.02-.26-.04-.42-.05-.31-.04-.62-.06-.93-.06-1.04 0-2.02.21-2.9.59-1.38-1.35-8.11-7.62-15.75-9.12 1.17-.38 2.37-.66 3.61-.85zm28.75 24.63v.12c-.96-2.04-2.94-4.96-6.85-7.35.13-.49.2-.99.2-1.51 0-2.84-1.97-5.25-4.71-6.14.41-2.75-.59-5.31-1.44-6.89 7.62 4.26 12.8 12.42 12.8 21.77zm-34.41-23.04c7.61.62 14.93 7.07 16.84 8.87-1.91 1.17-3.18 3.17-3.18 5.44 0 .62.1 1.21.27 1.77-2.64.53-14.6 2.36-26.4-4.82 2.71-5.05 7.13-9.06 12.47-11.26zm-8.04 40.75c4.12-.59 19.19-3.83 27.01-20.13.56.13 1.14.21 1.74.21.74 0 1.45-.11 2.12-.3.75 2.15 3.82 11.7 2.49 21.75-4.31 3.55-9.83 5.69-15.83 5.69-6.83 0-13.02-2.76-17.53-7.22z" fill="#252723"/></g></svg>

<?xml version="1.0" encoding="UTF-8" standalone="no"?>
<!DOCTYPE svg PUBLIC "-//W3C//DTD SVG 1.1//EN" "http://www.w3.org/Graphics/SVG/1.1/DTD/svg11.dtd">
<svg width="100%" height="100%" viewBox="0 0 53 53" version="1.1" xmlns="http://www.w3.org/2000/svg" xmlns:xlink="http://www.w3.org/1999/xlink" xml:space="preserve" xmlns:serif="http://www.serif.com/" style="fill-rule:evenodd;clip-rule:evenodd;stroke-linejoin:round;stroke-miterlimit:2;">
    <g transform="matrix(1,0,0,1,-39,-29)">
        <g>
            <path d="M75.25,52.34C74.66,52.11 73.53,51.55 72.66,50.8C71.69,49.82 71.09,48.53 71.09,47.11C71.09,45 72.4,43.17 74.31,42.25C75.98,41.64 77.24,41.61 77.97,41.68C80.89,42.06 83.14,44.35 83.14,47.12C83.14,47.67 83.05,48.2 82.88,48.71C82.79,48.92 82.32,49.93 81.57,50.82C80.47,51.93 78.88,52.63 77.12,52.63C76.46,52.62 75.84,52.52 75.25,52.34Z" style="fill:white;fill-rule:nonzero;"/>
            <path d="M90.82,55.85L90.82,55.97C89.86,53.93 87.88,51.01 83.97,48.62C84.1,48.13 84.17,47.63 84.17,47.11C84.17,44.27 82.2,41.86 79.46,40.97C79.87,38.22 78.87,35.66 78.02,34.08C85.64,38.34 90.82,46.5 90.82,55.85Z" style="fill:rgb(255,158,70);fill-rule:nonzero;"/>
            <path d="M56.41,32.81C64.02,33.43 71.34,39.88 73.25,41.68C71.34,42.85 70.07,44.85 70.07,47.12C70.07,47.74 70.17,48.33 70.34,48.89C67.7,49.42 55.74,51.25 43.94,44.07C46.65,39.02 51.07,35.01 56.41,32.81Z" style="fill:rgb(113,255,150);fill-rule:nonzero;"/>
            <path d="M48.37,73.56C52.49,72.97 67.56,69.73 75.38,53.43C75.94,53.56 76.52,53.64 77.12,53.64C77.86,53.64 78.57,53.53 79.24,53.34C79.99,55.49 83.06,65.04 81.73,75.09C77.42,78.64 71.9,80.78 65.9,80.78C59.07,80.78 52.88,78.02 48.37,73.56Z" style="fill:rgb(188,42,255);fill-rule:nonzero;"/>
            <path d="M79.54,52.7C79.54,52.7 83.82,63.66 82.2,75.37C82.2,75.37 89.54,70.41 91.18,58.55C91.18,58.55 90.15,52.82 83.36,48.86C83.37,48.86 81.97,52.27 79.54,52.7Z" style="fill:rgb(183,28,50);fill-rule:nonzero;"/>
            <path d="M71.01,49.27C71.01,49.27 57.04,52.89 43.25,44.26C43.25,44.26 34.93,58.12 47.27,73.18C47.27,73.18 66.13,72.05 75.1,52.84C75.1,52.84 71.44,51.42 71.01,49.27Z" style="fill:rgb(0,159,223);fill-rule:nonzero;"/>
            <path d="M74.09,41.79C74.09,41.79 65.46,32.95 56.31,32.28C56.31,32.28 66.02,27.69 76.57,32.76C76.57,32.76 79.78,36.91 78.86,41.32C78.87,41.33 77.08,40.68 74.09,41.79Z" style="fill:rgb(240,211,59);fill-rule:nonzero;"/>
            <path d="M79.04,77.63C79.04,77.63 58.67,81.19 53.5,61.46C48.33,41.73 63.51,30.38 63.51,30.38C63.51,30.38 36.65,33.91 40.96,60.91C40.96,60.91 49.97,91.59 79.04,77.63Z" style="fill:rgb(50,52,111);fill-opacity:0.2;fill-rule:nonzero;"/>
            <path d="M88.91,67.8C90.36,65.01 91.33,61.93 91.68,58.66C91.68,58.64 91.69,58.63 91.69,58.61L91.69,58.6C91.79,57.7 91.84,56.78 91.84,55.85C91.84,45.45 85.69,36.47 76.84,32.34C76.83,32.33 76.82,32.32 76.8,32.31C71.25,29.64 65.9,29.61 62.02,30.2C61.98,30.21 61.94,30.21 61.89,30.22C61.48,30.28 61.08,30.36 60.7,30.43C60.68,30.43 60.66,30.44 60.64,30.44C57.87,31 56.13,31.8 56.09,31.82C56.08,31.83 56.07,31.84 56.05,31.85C50.34,34.19 45.66,38.52 42.84,43.96C42.83,43.98 42.81,43.99 42.8,44C42.77,44.04 41.93,45.5 41.18,47.94C40.38,50.44 39.94,53.09 39.94,55.85C39.94,62.6 42.53,68.75 46.77,73.37C46.8,73.41 46.83,73.45 46.87,73.49C46.89,73.52 46.93,73.53 46.95,73.56C51.69,78.62 58.42,81.79 65.88,81.79C72.18,81.79 77.96,79.53 82.46,75.79C82.47,75.79 82.48,75.79 82.48,75.78C82.68,75.64 85.93,73.37 88.58,68.4C88.66,68.25 88.75,68.09 88.83,67.94C88.86,67.9 88.89,67.85 88.91,67.8ZM87.12,68.9C85.94,70.81 84.51,72.56 82.87,74.08C83.85,64.34 80.99,55.3 80.21,53.05C81.06,52.75 81.76,52.14 82.32,51.5C82.86,50.95 83.3,50.32 83.62,49.62C89.25,53.14 90.51,57.92 90.66,58.58L90.66,58.61C90.05,62.94 88.63,66.34 87.12,68.9ZM47.49,72.64C39.52,62.77 40.59,53.38 42.12,48.34C42.49,47.18 42.93,46.06 43.46,44.98C55.69,52.38 68.1,50.38 70.66,49.86C70.92,50.5 71.41,51.07 71.96,51.55C72.64,52.22 73.46,52.77 74.39,53.13C66.14,70.16 49.74,72.41 47.49,72.64ZM75.25,52.34C74.66,52.11 73.53,51.55 72.66,50.8C71.69,49.82 71.09,48.53 71.09,47.11C71.09,45 72.4,43.17 74.31,42.25C75.98,41.64 77.24,41.61 77.97,41.68C80.89,42.06 83.14,44.35 83.14,47.12C83.14,47.67 83.05,48.2 82.88,48.71C82.79,48.92 82.32,49.93 81.57,50.82C80.47,51.93 78.88,52.63 77.12,52.63C76.46,52.62 75.84,52.52 75.25,52.34ZM62.07,31.22C62.09,31.22 62.1,31.21 62.12,31.21C63.35,31.02 64.61,30.92 65.89,30.92C69.59,30.92 73.1,31.74 76.26,33.19C76.72,33.84 78.93,37.15 78.46,40.71C78.34,40.69 78.2,40.67 78.04,40.66C77.73,40.62 77.42,40.6 77.11,40.6C76.07,40.6 75.09,40.81 74.21,41.19C72.83,39.84 66.1,33.57 58.46,32.07C59.63,31.69 60.83,31.41 62.07,31.22ZM90.82,55.85L90.82,55.97C89.86,53.93 87.88,51.01 83.97,48.62C84.1,48.13 84.17,47.63 84.17,47.11C84.17,44.27 82.2,41.86 79.46,40.97C79.87,38.22 78.87,35.66 78.02,34.08C85.64,38.34 90.82,46.5 90.82,55.85ZM56.41,32.81C64.02,33.43 71.34,39.88 73.25,41.68C71.34,42.85 70.07,44.85 70.07,47.12C70.07,47.74 70.17,48.33 70.34,48.89C67.7,49.42 55.74,51.25 43.94,44.07C46.65,39.02 51.07,35.01 56.41,32.81ZM48.37,73.56C52.49,72.97 67.56,69.73 75.38,53.43C75.94,53.56 76.52,53.64 77.12,53.64C77.86,53.64 78.57,53.53 79.24,53.34C79.99,55.49 83.06,65.04 81.73,75.09C77.42,78.64 71.9,80.78 65.9,80.78C59.07,80.78 52.88,78.02 48.37,73.56Z" style="fill:rgb(37,39,35);fill-rule:nonzero;"/>
        </g>
    </g>
</svg>
